Newaita-dark/apps/48/preferences-system-parental-controls.svg

<svg height="48pt" viewBox="0 0 48 48" width="48pt" xmlns="http://www.w3.org/2000/svg" xmlns:xlink="http://www.w3.org/1999/xlink"><linearGradient id="a" gradientUnits="userSpaceOnUse" x1="23.81478" x2="23.81478" y1="42.0509045" y2="44.03547050005"><stop offset="0" stop-opacity=".27451"/><stop offset="1" stop-opacity="0"/></linearGradient><linearGradient id="b"><stop offset="0" stop-opacity=".313726"/><stop offset=".222222" stop-opacity=".27451"/><stop offset="1" stop-opacity="0"/></linearGradient><radialGradient id="c" cx="450.908936" cy="189.579361" gradientTransform="matrix(.00000026 -.117199 -.210958 -.00000015 79.684395 95.392999)" gradientUnits="userSpaceOnUse" r="21.166656" xlink:href="#b"/><radialGradient id="d" cx="450.908936" cy="189.579361" gradientTransform="matrix(-.00000026 .117199 .210958 .00000015 -31.80678 -11.291218)" gradientUnits="userSpaceOnUse" r="21.166656" xlink:href="#b"/><radialGradient id="e" cx="450.908936" cy="189.579361" gradientTransform="matrix(-.00000026 -.117199 .210958 -.00000015 -31.80678 95.392999)" gradientUnits="userSpaceOnUse" r="21.166656" xlink:href="#b"/><radialGradient id="f" cx="450.908936" cy="189.579361" gradientTransform="matrix(.00000026 .117199 -.210958 .00000015 79.684393 -11.291219)" gradientUnits="userSpaceOnUse" r="21.166656" xlink:href="#b"/><linearGradient id="g" gradientUnits="userSpaceOnUse" x1="23.814786" x2="23.814786" y1="4.3441560001" y2="42.0508995"><stop offset="0" stop-color="#ffb74d"/><stop offset="1" stop-color="#ffa726"/></linearGradient><linearGradient id="h" gradientUnits="userSpaceOnUse" x1="23.814816" x2="23.814816" y1="42.05096580616" y2="4.34417266504"><stop offset="0" stop-color="#424242"/><stop offset="1" stop-color="#616161"/></linearGradient><path d="m7.691406 42.050781h32.496094v1.984375h-32.496094zm0 0" fill="url(#a)"/><path d="m40.1875 42.050781h3.96875v-1.984375h-3.96875zm0 0" fill="url(#c)"/><path d="m7.691406 42.050781h-3.96875v1.984375h3.96875zm0 0" fill="url(#d)"/><path d="m7.691406 42.050781h-3.96875v-1.984375h3.96875zm0 0" fill="url(#e)"/><path d="m40.1875 42.050781h3.96875v1.984375h-3.96875zm0 0" fill="url(#f)"/><path d="m5.457031 4.34375h36.714844c.820313 0 1.488281.667969 1.488281 1.488281v34.730469c0 .820312-.667968 1.488281-1.488281 1.488281h-36.714844c-.820312 0-1.488281-.667969-1.488281-1.488281v-34.730469c0-.820312.667969-1.488281 1.488281-1.488281zm0 0" fill="url(#g)"/><path d="m5.457031 4.34375c-.824219 0-1.488281.664062-1.488281 1.488281v.558594c0-.824219.664062-1.488281 1.488281-1.488281h36.714844c.824219 0 1.488281.664062 1.488281 1.488281v-.558594c0-.824219-.664062-1.488281-1.488281-1.488281zm0 0" fill="#fff" fill-opacity=".392157"/><path d="m5.457031 41.988281c-.824219 0-1.488281-.664062-1.488281-1.488281v-.558594c0 .824219.664062 1.488282 1.488281 1.488282h36.714844c.824219 0 1.488281-.664063 1.488281-1.488282v.558594c0 .824219-.664062 1.488281-1.488281 1.488281zm0 0" fill-opacity=".235294"/><path d="m5.457031 4.203125c-.898437 0-1.628906.730469-1.628906 1.628906v34.730469c0 .898438.730469 1.628906 1.628906 1.628906h36.714844c.898437 0 1.628906-.730468 1.628906-1.628906v-34.730469c0-.898437-.730469-1.628906-1.628906-1.628906zm0 .28125h36.714844c.75 0 1.347656.597656 1.347656 1.347656v34.730469c0 .75-.597656 1.347656-1.347656 1.347656h-36.714844c-.75 0-1.347656-.597656-1.347656-1.347656v-34.730469c0-.75.597656-1.347656 1.347656-1.347656zm0 0" fill="#212121"/><path d="m20.589844 11.289062c-2.472656 0-4.464844 1.992188-4.464844 4.464844 0 2.476563 1.992188 4.464844 4.464844 4.464844s4.464844-1.988281 4.464844-4.464844c0-2.472656-1.992188-4.464844-4.464844-4.464844zm8.433594 7.9375c-1.855469 0-3.347657 1.496094-3.347657 3.351563s1.492188 3.347656 3.347657 3.347656c1.855468 0 3.351562-1.492187 3.351562-3.347656s-1.496094-3.351563-3.351562-3.351563zm-12.558594 1.988282c-2.003906.796875-3.316406 2.164062-3.316406 3.71875v3.96875c0 2.472656 3.320312 4.464844 7.441406 4.464844.464844 0 .921875-.023438 1.363281-.074219-.148437-.398438-.234375-.824219-.234375-1.277344v-3.015625c0-1.886719 1.394531-3.273438 3.085938-4.054688-.398438-.703124-.628907-1.511718-.628907-2.367187 0-.382813.046875-.757813.132813-1.113281-1.09375.628906-2.363282.988281-3.71875.988281-1.527344 0-2.945313-.457031-4.125-1.238281zm9.269531 4.960937c-1.519531.605469-2.519531 1.640625-2.519531 2.824219v3.015625c0 1.878906 2.523437 3.390625 5.652344 3.390625 3.132812 0 5.652343-1.511719 5.652343-3.390625v-3.015625c0-1.183594-.996093-2.21875-2.519531-2.824219-.894531.59375-1.972656.941407-3.132812.941407-1.160157 0-2.234376-.347657-3.132813-.941407zm0 0" fill="url(#h)"/><path d="m20.589844 11.289062c-2.472656 0-4.464844 1.992188-4.464844 4.464844 0 .085938.003906.167969.007812.25.125-2.359375 2.066407-4.21875 4.457032-4.21875s4.332031 1.859375 4.457031 4.21875c.003906-.082031.007813-.164062.007813-.25 0-2.472656-1.992188-4.464844-4.464844-4.464844zm8.433594 7.9375c-1.855469 0-3.347657 1.496094-3.347657 3.351563 0 .082031.003907.164063.007813.246094.128906-1.738281 1.570312-3.101563 3.339844-3.101563 1.773437 0 3.214843 1.363282 3.339843 3.101563.007813-.082031.011719-.164063.011719-.246094 0-1.855469-1.496094-3.351563-3.351562-3.351563zm-12.558594 1.988282c-2.003906.796875-3.316406 2.164062-3.316406 3.71875v.496094c0-1.554688 1.3125-2.921876 3.316406-3.71875 1.179687.78125 2.597656 1.238281 4.125 1.238281 1.316406 0 2.550781-.339844 3.621094-.933594.023437-.1875.054687-.371094.097656-.550781-1.09375.628906-2.363282.988281-3.71875.988281-1.527344 0-2.945313-.457031-4.125-1.238281zm7.71875 1.613281c-.003906.082031-.007813.164063-.007813.246094 0 .699219.15625 1.363281.425781 1.96875.070313-.035157.136719-.066407.203126-.097657-.359376-.632812-.582032-1.351562-.621094-2.117187zm1.550781 3.347656c-1.519531.605469-2.519531 1.640625-2.519531 2.824219v.496094c0-1.183594 1-2.21875 2.519531-2.824219.898437.59375 1.972656.941406 3.132813.941406 1.160156 0 2.238281-.347656 3.132812-.941406 1.523438.605469 2.519531 1.640625 2.519531 2.824219v-.496094c0-1.183594-.996093-2.21875-2.519531-2.824219-.894531.59375-1.972656.941407-3.132812.941407-1.160157 0-2.234376-.347657-3.132813-.941407zm-4.015625 5.839844v.496094c0 .273437.03125.542969.089844.796875.050781-.003906.097656-.007813.144531-.015625-.148437-.398438-.234375-.824219-.234375-1.277344zm0 0" fill="#fff" fill-opacity=".392157"/><path d="m16.140625 16.203125c-.011719.121094-.015625.246094-.015625.371094 0 2.472656 1.992188 4.464843 4.464844 4.464843s4.464844-1.992187 4.464844-4.464843c0-.125-.003907-.25-.015626-.371094-.1875 2.296875-2.101562 4.09375-4.449218 4.09375s-4.261719-1.796875-4.449219-4.09375zm8.167969 6.078125c-.042969.027344-.085938.050781-.128906.074219 0 .015625-.003907.03125-.003907.046875 0 .167968.011719.335937.027344.5.023437-.210938.058594-.417969.105469-.621094zm1.386718.742188c-.011718.121093-.019531.246093-.019531.371093 0 1.855469 1.492188 3.351563 3.347657 3.351563 1.855468 0 3.351562-1.496094 3.351562-3.351563 0-.125-.007812-.25-.023438-.371093-.183593 1.679687-1.597656 2.976562-3.328124 2.976562-1.730469 0-3.144532-1.296875-3.328126-2.976562zm-1.179687 2.136718c-1.558594.800782-2.796875 2.136719-2.796875 3.914063v.746093c0-1.890624 1.394531-3.277343 3.085938-4.058593-.109376-.191407-.207032-.394531-.289063-.601563zm-11.367187 3.816406v.746094c0 2.472656 3.320312 4.464844 7.441406 4.464844.464844 0 .921875-.027344 1.363281-.074219-.085937-.234375-.152344-.472656-.191406-.726562-.382813.039062-.773438.054687-1.171875.054687-4.121094 0-7.441406-1.988281-7.441406-4.464844zm10.066406 3.113282v.742187c0 1.878907 2.523437 3.390625 5.652344 3.390625 3.132812 0 5.652343-1.511718 5.652343-3.390625v-.742187c0 1.878906-2.519531 3.390625-5.652343 3.390625-3.128907 0-5.652344-1.511719-5.652344-3.390625zm0 0" fill-opacity=".235294"/><path d="m829.999523 455.074677c-99.675526 0-179.982822 80.307296-179.982822 179.982822 0 99.832991 80.307296 179.982822 179.982822 179.982822s179.982822-80.149831 179.982822-179.982822c0-99.675526-80.307296-179.982822-179.982822-179.982822zm339.967552 319.969461c-74.79601 0-134.94775 60.309205-134.94775 135.105215 0 74.796011 60.15174 134.947751 134.94775 134.947751 74.796011 0 135.105216-60.15174 135.105216-134.947751 0-74.79601-60.309205-135.105215-135.105216-135.105215zm-506.250894 80.149831c-80.779692 32.122918-133.688028 87.235768-133.688028 149.906952v159.984731c0 99.675526 133.845493 179.982821 299.97137 179.982821 18.738369 0 37.161807-.944791 54.955385-2.99184-5.983681-16.061459-9.447918-33.225175-9.447918-51.491148v-121.563201c0-76.055733 56.215108-131.95591 124.397576-163.448967-16.061459-28.343752-25.351911-60.939066-25.351911-95.423964 0-15.431598 1.889584-30.548265 5.35382-44.877606-44.09028 25.351911-95.266498 39.838717-149.906952 39.838717-61.568927 0-118.728826-18.423438-166.283342-49.916495zm373.665124 199.980913c-61.253997 24.407119-101.56511 66.13542-101.56511 113.847402v121.563201c0 75.740802 101.722575 136.679868 227.852269 136.679868 126.287159 0 227.852269-60.939066 227.852269-136.679868v-121.563201c0-47.711982-40.153648-89.440283-101.56511-113.847402-36.05955 23.934723-79.519969 37.949134-126.287159 37.949134s-90.070144-14.014411-126.287159-37.949134zm0 0" fill="none" stroke="#212121" stroke-linecap="round" stroke-linejoin="round" stroke-width="11.338583" transform="scale(.0248071)"/></svg>

<?xml version="1.0" encoding="UTF-8"?>
<svg xmlns="http://www.w3.org/2000/svg" xmlns:xlink="http://www.w3.org/1999/xlink" width="48pt" height="48pt" viewBox="0 0 48 48" version="1.1">
<defs>
<linearGradient id="linear0" gradientUnits="userSpaceOnUse" x1="254" y1="233.5" x2="254" y2="254.666672" gradientTransform="matrix(0.093759,0,0,0.093759,-0.00000572259,20.158178)">
<stop offset="0" style="stop-color:rgb(0%,0%,0%);stop-opacity:0.27451;"/>
<stop offset="1" style="stop-color:rgb(0%,0%,0%);stop-opacity:0;"/>
</linearGradient>
<radialGradient id="radial0" gradientUnits="userSpaceOnUse" cx="450.908936" cy="189.579361" fx="450.908936" fy="189.579361" r="21.166656" gradientTransform="matrix(0.000000261256,-0.117199,-0.210958,-0.000000152308,79.684395,95.392999)">
<stop offset="0" style="stop-color:rgb(0%,0%,0%);stop-opacity:0.313726;"/>
<stop offset="0.222222" style="stop-color:rgb(0%,0%,0%);stop-opacity:0.27451;"/>
<stop offset="1" style="stop-color:rgb(0%,0%,0%);stop-opacity:0;"/>
</radialGradient>
<radialGradient id="radial1" gradientUnits="userSpaceOnUse" cx="450.908936" cy="189.579361" fx="450.908936" fy="189.579361" r="21.166656" gradientTransform="matrix(-0.000000261256,0.117199,0.210958,0.000000152308,-31.80678,-11.291218)">
<stop offset="0" style="stop-color:rgb(0%,0%,0%);stop-opacity:0.313726;"/>
<stop offset="0.222222" style="stop-color:rgb(0%,0%,0%);stop-opacity:0.27451;"/>
<stop offset="1" style="stop-color:rgb(0%,0%,0%);stop-opacity:0;"/>
</radialGradient>
<radialGradient id="radial2" gradientUnits="userSpaceOnUse" cx="450.908936" cy="189.579361" fx="450.908936" fy="189.579361" r="21.166656" gradientTransform="matrix(-0.000000261256,-0.117199,0.210958,-0.000000152308,-31.80678,95.392999)">
<stop offset="0" style="stop-color:rgb(0%,0%,0%);stop-opacity:0.313726;"/>
<stop offset="0.222222" style="stop-color:rgb(0%,0%,0%);stop-opacity:0.27451;"/>
<stop offset="1" style="stop-color:rgb(0%,0%,0%);stop-opacity:0;"/>
</radialGradient>
<radialGradient id="radial3" gradientUnits="userSpaceOnUse" cx="450.908936" cy="189.579361" fx="450.908936" fy="189.579361" r="21.166656" gradientTransform="matrix(0.000000261256,0.117199,-0.210958,0.000000152308,79.684393,-11.291219)">
<stop offset="0" style="stop-color:rgb(0%,0%,0%);stop-opacity:0.313726;"/>
<stop offset="0.222222" style="stop-color:rgb(0%,0%,0%);stop-opacity:0.27451;"/>
<stop offset="1" style="stop-color:rgb(0%,0%,0%);stop-opacity:0;"/>
</radialGradient>
<linearGradient id="linear1" gradientUnits="userSpaceOnUse" x1="254" y1="-168.666656" x2="254" y2="233.5" gradientTransform="matrix(0.093759,0,0,0.093759,0,20.158173)">
<stop offset="0" style="stop-color:rgb(100%,71.764708%,30.19608%);stop-opacity:1;"/>
<stop offset="1" style="stop-color:rgb(100%,65.490198%,14.901961%);stop-opacity:1;"/>
</linearGradient>
<linearGradient id="linear2" gradientUnits="userSpaceOnUse" x1="960" y1="1695.118164" x2="960" y2="175.118118" gradientTransform="matrix(0.0248071,0,0,0.0248071,0,0.00000000000000282)">
<stop offset="0" style="stop-color:rgb(25.882354%,25.882354%,25.882354%);stop-opacity:1;"/>
<stop offset="1" style="stop-color:rgb(38.039216%,38.039216%,38.039216%);stop-opacity:1;"/>
</linearGradient>
</defs>
<g id="surface1">
<path style=" stroke:none;fill-rule:nonzero;fill:url(#linear0);" d="M 7.691406 42.050781 L 40.1875 42.050781 L 40.1875 44.035156 L 7.691406 44.035156 Z M 7.691406 42.050781 "/>
<path style=" stroke:none;fill-rule:nonzero;fill:url(#radial0);" d="M 40.1875 42.050781 L 44.15625 42.050781 L 44.15625 40.066406 L 40.1875 40.066406 Z M 40.1875 42.050781 "/>
<path style=" stroke:none;fill-rule:nonzero;fill:url(#radial1);" d="M 7.691406 42.050781 L 3.722656 42.050781 L 3.722656 44.035156 L 7.691406 44.035156 Z M 7.691406 42.050781 "/>
<path style=" stroke:none;fill-rule:nonzero;fill:url(#radial2);" d="M 7.691406 42.050781 L 3.722656 42.050781 L 3.722656 40.066406 L 7.691406 40.066406 Z M 7.691406 42.050781 "/>
<path style=" stroke:none;fill-rule:nonzero;fill:url(#radial3);" d="M 40.1875 42.050781 L 44.15625 42.050781 L 44.15625 44.035156 L 40.1875 44.035156 Z M 40.1875 42.050781 "/>
<path style=" stroke:none;fill-rule:nonzero;fill:url(#linear1);" d="M 5.457031 4.34375 L 42.171875 4.34375 C 42.992188 4.34375 43.660156 5.011719 43.660156 5.832031 L 43.660156 40.5625 C 43.660156 41.382812 42.992188 42.050781 42.171875 42.050781 L 5.457031 42.050781 C 4.636719 42.050781 3.96875 41.382812 3.96875 40.5625 L 3.96875 5.832031 C 3.96875 5.011719 4.636719 4.34375 5.457031 4.34375 Z M 5.457031 4.34375 "/>
<path style=" stroke:none;fill-rule:nonzero;fill:rgb(100%,100%,100%);fill-opacity:0.392157;" d="M 5.457031 4.34375 C 4.632812 4.34375 3.96875 5.007812 3.96875 5.832031 L 3.96875 6.390625 C 3.96875 5.566406 4.632812 4.902344 5.457031 4.902344 L 42.171875 4.902344 C 42.996094 4.902344 43.660156 5.566406 43.660156 6.390625 L 43.660156 5.832031 C 43.660156 5.007812 42.996094 4.34375 42.171875 4.34375 Z M 5.457031 4.34375 "/>
<path style=" stroke:none;fill-rule:nonzero;fill:rgb(0%,0%,0%);fill-opacity:0.235294;" d="M 5.457031 41.988281 C 4.632812 41.988281 3.96875 41.324219 3.96875 40.5 L 3.96875 39.941406 C 3.96875 40.765625 4.632812 41.429688 5.457031 41.429688 L 42.171875 41.429688 C 42.996094 41.429688 43.660156 40.765625 43.660156 39.941406 L 43.660156 40.5 C 43.660156 41.324219 42.996094 41.988281 42.171875 41.988281 Z M 5.457031 41.988281 "/>
<path style=" stroke:none;fill-rule:nonzero;fill:rgb(12.941177%,12.941177%,12.941177%);fill-opacity:1;" d="M 5.457031 4.203125 C 4.558594 4.203125 3.828125 4.933594 3.828125 5.832031 L 3.828125 40.5625 C 3.828125 41.460938 4.558594 42.191406 5.457031 42.191406 L 42.171875 42.191406 C 43.070312 42.191406 43.800781 41.460938 43.800781 40.5625 L 43.800781 5.832031 C 43.800781 4.933594 43.070312 4.203125 42.171875 4.203125 Z M 5.457031 4.484375 L 42.171875 4.484375 C 42.921875 4.484375 43.519531 5.082031 43.519531 5.832031 L 43.519531 40.5625 C 43.519531 41.3125 42.921875 41.910156 42.171875 41.910156 L 5.457031 41.910156 C 4.707031 41.910156 4.109375 41.3125 4.109375 40.5625 L 4.109375 5.832031 C 4.109375 5.082031 4.707031 4.484375 5.457031 4.484375 Z M 5.457031 4.484375 "/>
<path style=" stroke:none;fill-rule:nonzero;fill:url(#linear2);" d="M 20.589844 11.289062 C 18.117188 11.289062 16.125 13.28125 16.125 15.753906 C 16.125 18.230469 18.117188 20.21875 20.589844 20.21875 C 23.0625 20.21875 25.054688 18.230469 25.054688 15.753906 C 25.054688 13.28125 23.0625 11.289062 20.589844 11.289062 Z M 29.023438 19.226562 C 27.167969 19.226562 25.675781 20.722656 25.675781 22.578125 C 25.675781 24.433594 27.167969 25.925781 29.023438 25.925781 C 30.878906 25.925781 32.375 24.433594 32.375 22.578125 C 32.375 20.722656 30.878906 19.226562 29.023438 19.226562 Z M 16.464844 21.214844 C 14.460938 22.011719 13.148438 23.378906 13.148438 24.933594 L 13.148438 28.902344 C 13.148438 31.375 16.46875 33.367188 20.589844 33.367188 C 21.054688 33.367188 21.511719 33.34375 21.953125 33.292969 C 21.804688 32.894531 21.71875 32.46875 21.71875 32.015625 L 21.71875 29 C 21.71875 27.113281 23.113281 25.726562 24.804688 24.945312 C 24.40625 24.242188 24.175781 23.433594 24.175781 22.578125 C 24.175781 22.195312 24.222656 21.820312 24.308594 21.464844 C 23.214844 22.09375 21.945312 22.453125 20.589844 22.453125 C 19.0625 22.453125 17.644531 21.996094 16.464844 21.214844 Z M 25.734375 26.175781 C 24.214844 26.78125 23.214844 27.816406 23.214844 29 L 23.214844 32.015625 C 23.214844 33.894531 25.738281 35.40625 28.867188 35.40625 C 32 35.40625 34.519531 33.894531 34.519531 32.015625 L 34.519531 29 C 34.519531 27.816406 33.523438 26.78125 32 26.175781 C 31.105469 26.769531 30.027344 27.117188 28.867188 27.117188 C 27.707031 27.117188 26.632812 26.769531 25.734375 26.175781 Z M 25.734375 26.175781 "/>
<path style=" stroke:none;fill-rule:nonzero;fill:rgb(100%,100%,100%);fill-opacity:0.392157;" d="M 20.589844 11.289062 C 18.117188 11.289062 16.125 13.28125 16.125 15.753906 C 16.125 15.839844 16.128906 15.921875 16.132812 16.003906 C 16.257812 13.644531 18.199219 11.785156 20.589844 11.785156 C 22.980469 11.785156 24.921875 13.644531 25.046875 16.003906 C 25.050781 15.921875 25.054688 15.839844 25.054688 15.753906 C 25.054688 13.28125 23.0625 11.289062 20.589844 11.289062 Z M 29.023438 19.226562 C 27.167969 19.226562 25.675781 20.722656 25.675781 22.578125 C 25.675781 22.660156 25.679688 22.742188 25.683594 22.824219 C 25.8125 21.085938 27.253906 19.722656 29.023438 19.722656 C 30.796875 19.722656 32.238281 21.085938 32.363281 22.824219 C 32.371094 22.742188 32.375 22.660156 32.375 22.578125 C 32.375 20.722656 30.878906 19.226562 29.023438 19.226562 Z M 16.464844 21.214844 C 14.460938 22.011719 13.148438 23.378906 13.148438 24.933594 L 13.148438 25.429688 C 13.148438 23.875 14.460938 22.507812 16.464844 21.710938 C 17.644531 22.492188 19.0625 22.949219 20.589844 22.949219 C 21.90625 22.949219 23.140625 22.609375 24.210938 22.015625 C 24.234375 21.828125 24.265625 21.644531 24.308594 21.464844 C 23.214844 22.09375 21.945312 22.453125 20.589844 22.453125 C 19.0625 22.453125 17.644531 21.996094 16.464844 21.214844 Z M 24.183594 22.828125 C 24.179688 22.910156 24.175781 22.992188 24.175781 23.074219 C 24.175781 23.773438 24.332031 24.4375 24.601562 25.042969 C 24.671875 25.007812 24.738281 24.976562 24.804688 24.945312 C 24.445312 24.3125 24.222656 23.59375 24.183594 22.828125 Z M 25.734375 26.175781 C 24.214844 26.78125 23.214844 27.816406 23.214844 29 L 23.214844 29.496094 C 23.214844 28.3125 24.214844 27.277344 25.734375 26.671875 C 26.632812 27.265625 27.707031 27.613281 28.867188 27.613281 C 30.027344 27.613281 31.105469 27.265625 32 26.671875 C 33.523438 27.277344 34.519531 28.3125 34.519531 29.496094 L 34.519531 29 C 34.519531 27.816406 33.523438 26.78125 32 26.175781 C 31.105469 26.769531 30.027344 27.117188 28.867188 27.117188 C 27.707031 27.117188 26.632812 26.769531 25.734375 26.175781 Z M 21.71875 32.015625 L 21.71875 32.511719 C 21.71875 32.785156 21.75 33.054688 21.808594 33.308594 C 21.859375 33.304688 21.90625 33.300781 21.953125 33.292969 C 21.804688 32.894531 21.71875 32.46875 21.71875 32.015625 Z M 21.71875 32.015625 "/>
<path style=" stroke:none;fill-rule:nonzero;fill:rgb(0%,0%,0%);fill-opacity:0.235294;" d="M 16.140625 16.203125 C 16.128906 16.324219 16.125 16.449219 16.125 16.574219 C 16.125 19.046875 18.117188 21.039062 20.589844 21.039062 C 23.0625 21.039062 25.054688 19.046875 25.054688 16.574219 C 25.054688 16.449219 25.050781 16.324219 25.039062 16.203125 C 24.851562 18.5 22.9375 20.296875 20.589844 20.296875 C 18.242188 20.296875 16.328125 18.5 16.140625 16.203125 Z M 24.308594 22.28125 C 24.265625 22.308594 24.222656 22.332031 24.179688 22.355469 C 24.179688 22.371094 24.175781 22.386719 24.175781 22.402344 C 24.175781 22.570312 24.1875 22.738281 24.203125 22.902344 C 24.226562 22.691406 24.261719 22.484375 24.308594 22.28125 Z M 25.695312 23.023438 C 25.683594 23.144531 25.675781 23.269531 25.675781 23.394531 C 25.675781 25.25 27.167969 26.746094 29.023438 26.746094 C 30.878906 26.746094 32.375 25.25 32.375 23.394531 C 32.375 23.269531 32.367188 23.144531 32.351562 23.023438 C 32.167969 24.703125 30.753906 26 29.023438 26 C 27.292969 26 25.878906 24.703125 25.695312 23.023438 Z M 24.515625 25.160156 C 22.957031 25.960938 21.71875 27.296875 21.71875 29.074219 L 21.71875 29.820312 C 21.71875 27.929688 23.113281 26.542969 24.804688 25.761719 C 24.695312 25.570312 24.597656 25.367188 24.515625 25.160156 Z M 13.148438 28.976562 L 13.148438 29.722656 C 13.148438 32.195312 16.46875 34.1875 20.589844 34.1875 C 21.054688 34.1875 21.511719 34.160156 21.953125 34.113281 C 21.867188 33.878906 21.800781 33.640625 21.761719 33.386719 C 21.378906 33.425781 20.988281 33.441406 20.589844 33.441406 C 16.46875 33.441406 13.148438 31.453125 13.148438 28.976562 Z M 23.214844 32.089844 L 23.214844 32.832031 C 23.214844 34.710938 25.738281 36.222656 28.867188 36.222656 C 32 36.222656 34.519531 34.710938 34.519531 32.832031 L 34.519531 32.089844 C 34.519531 33.96875 32 35.480469 28.867188 35.480469 C 25.738281 35.480469 23.214844 33.96875 23.214844 32.089844 Z M 23.214844 32.089844 "/>
<path style="fill:none;stroke-width:11.338583;stroke-linecap:round;stroke-linejoin:round;stroke:rgb(12.941177%,12.941177%,12.941177%);stroke-opacity:1;stroke-miterlimit:4;" d="M 829.999523 455.074677 C 730.323997 455.074677 650.016701 535.381973 650.016701 635.057499 C 650.016701 734.89049 730.323997 815.040321 829.999523 815.040321 C 929.675049 815.040321 1009.982345 734.89049 1009.982345 635.057499 C 1009.982345 535.381973 929.675049 455.074677 829.999523 455.074677 Z M 1169.967075 775.044138 C 1095.171065 775.044138 1035.019325 835.353343 1035.019325 910.149353 C 1035.019325 984.945364 1095.171065 1045.097104 1169.967075 1045.097104 C 1244.763086 1045.097104 1305.072291 984.945364 1305.072291 910.149353 C 1305.072291 835.353343 1244.763086 775.044138 1169.967075 775.044138 Z M 663.716181 855.193969 C 582.936489 887.316887 530.028153 942.429737 530.028153 1005.100921 L 530.028153 1165.085652 C 530.028153 1264.761178 663.873646 1345.068473 829.999523 1345.068473 C 848.737892 1345.068473 867.16133 1344.123682 884.954908 1342.076633 C 878.971227 1326.015174 875.50699 1308.851458 875.50699 1290.585485 L 875.50699 1169.022284 C 875.50699 1092.966551 931.722098 1037.066374 999.904566 1005.573317 C 983.843107 977.229565 974.552655 944.634251 974.552655 910.149353 C 974.552655 894.717755 976.442239 879.601088 979.906475 865.271747 C 935.816195 890.623658 884.639977 905.110464 829.999523 905.110464 C 768.430596 905.110464 711.270697 886.687026 663.716181 855.193969 Z M 1037.381305 1055.174882 C 976.127308 1079.582001 935.816195 1121.310302 935.816195 1169.022284 L 935.816195 1290.585485 C 935.816195 1366.326287 1037.53877 1427.265353 1163.668464 1427.265353 C 1289.955623 1427.265353 1391.520733 1366.326287 1391.520733 1290.585485 L 1391.520733 1169.022284 C 1391.520733 1121.310302 1351.367085 1079.582001 1289.955623 1055.174882 C 1253.896073 1079.109605 1210.435654 1093.124016 1163.668464 1093.124016 C 1116.901274 1093.124016 1073.59832 1079.109605 1037.381305 1055.174882 Z M 1037.381305 1055.174882 " transform="matrix(0.0248071,0,0,0.0248071,0,0)"/>
</g>
</svg>
